X: 24816
T: Maggie Pickins
R: strathspey
M: 4/4
K: Gmajor
|:B/A/|GE DE GA B2|cB/A/ BA GE D2|G>E DE GA Be|de/f/ gB AG G:|
e|de/f/ gf ed g2|de/f/ gB AG E2|de/g/ gf e/f/e/d/ gG|G>A BG AG G2|
g/a/g/f/ gf ed B2|de/f/ gB AG E2|G>E DE GA Be|de/f/ gB AG G||

